src/assets/images/icons/list-settings-line.svg

<svg width="24" height="24" viewBox="0 0 24 24" fill="none" xmlns="http://www.w3.org/2000/svg">
<g clip-path="url(#clip0_58_16740)">
<path d="M2 18H9V20H2V18ZM2 11H11V13H2V11ZM2 4H22V6H2V4ZM20.674 13.025L21.83 12.634L22.83 14.366L21.914 15.171C22.0293 15.7177 22.0293 16.2823 21.914 16.829L22.83 17.634L21.83 19.366L20.674 18.975C20.264 19.345 19.776 19.63 19.239 19.805L19 21H17L16.76 19.804C16.2293 19.6306 15.7408 19.3478 15.326 18.974L14.17 19.366L13.17 17.634L14.086 16.829C13.9707 16.2823 13.9707 15.7177 14.086 15.171L13.17 14.366L14.17 12.634L15.326 13.025C15.736 12.655 16.224 12.37 16.761 12.195L17 11H19L19.24 12.196C19.776 12.37 20.264 12.656 20.674 13.026V13.025ZM18 18C18.5304 18 19.0391 17.7893 19.4142 17.4142C19.7893 17.0391 20 16.5304 20 16C20 15.4696 19.7893 14.9609 19.4142 14.5858C19.0391 14.2107 18.5304 14 18 14C17.4696 14 16.9609 14.2107 16.5858 14.5858C16.2107 14.9609 16 15.4696 16 16C16 16.5304 16.2107 17.0391 16.5858 17.4142C16.9609 17.7893 17.4696 18 18 18Z" fill="#181D27"/>
</g>
<defs>
<clipPath id="clip0_58_16740">
<rect width="24" height="24" fill="white"/>
</clipPath>
</defs>
</svg>

<svg xmlns="http://www.w3.org/2000/svg" width="24" height="24" fill="none" viewBox="0 0 24 24"><g clip-path="url(#a)"><path fill="#181d27" d="M2 18h7v2H2zm0-7h9v2H2zm0-7h20v2H2zm18.674 9.025 1.156-.391 1 1.732-.916.805a4 4 0 0 1 0 1.658l.916.805-1 1.732-1.156-.391c-.41.37-.898.655-1.435.83L19 21h-2l-.24-1.196a4 4 0 0 1-1.434-.83l-1.156.392-1-1.732.916-.805a4 4 0 0 1 0-1.658l-.916-.805 1-1.732 1.156.391c.41-.37.898-.655 1.435-.83L17 11h2l.24 1.196c.536.174 1.024.46 1.434.83zM18 18a2 2 0 1 0 0-4 2 2 0 0 0 0 4"/></g><defs><clipPath id="a"><path fill="#fff" d="M0 0h24v24H0z"/></clipPath></defs></svg>
